Newaita/actions/scalable/code-class.svg

<?xml version="1.0" encoding="UTF-8"?>
<svg xmlns="http://www.w3.org/2000/svg" xmlns:xlink="http://www.w3.org/1999/xlink" width="512pt" height="512pt" viewBox="0 0 512 512" version="1.1">
<g id="surface1">
<path style=" stroke:none;fill-rule:nonzero;fill:rgb(47.058824%,56.470591%,61.176473%);fill-opacity:1;" d="M 148.179688 215.6875 L 148.179688 301.601562 L 105.84375 301.601562 L 105.84375 215.6875 Z M 148.179688 215.6875 "/>
<path style=" stroke:none;fill-rule:nonzero;fill:rgb(47.058824%,56.470591%,61.176473%);fill-opacity:1;" d="M 402.203125 152.179688 L 231.613281 152.179688 L 231.613281 109.84375 L 402.203125 109.84375 Z M 402.203125 152.179688 "/>
<path style=" stroke:none;fill-rule:nonzero;fill:rgb(47.058824%,56.470591%,61.176473%);fill-opacity:1;" d="M 359.867188 301.601562 L 359.867188 152.179688 L 402.203125 152.179688 L 402.203125 301.601562 Z M 359.867188 301.601562 "/>
<path style=" stroke:none;fill-rule:nonzero;fill:rgb(25.882354%,25.882354%,25.882354%);fill-opacity:1;" d="M 74.089844 46.335938 C 56.5 46.335938 42.335938 60.5 42.335938 78.089844 L 42.335938 183.933594 C 42.335938 201.523438 56.5 215.6875 74.089844 215.6875 L 201.101562 215.6875 C 218.695312 215.6875 232.855469 201.523438 232.855469 183.933594 L 232.855469 78.089844 C 232.855469 60.5 218.695312 46.335938 201.101562 46.335938 Z M 95.257812 78.089844 L 179.933594 78.089844 C 191.660156 78.089844 201.101562 87.53125 201.101562 99.257812 L 201.101562 162.765625 C 201.101562 174.492188 191.660156 183.933594 179.933594 183.933594 L 95.257812 183.933594 C 83.53125 183.933594 74.089844 174.492188 74.089844 162.765625 L 74.089844 99.257812 C 74.089844 87.53125 83.53125 78.089844 95.257812 78.089844 Z M 95.257812 78.089844 "/>
<path style=" stroke:none;fill-rule:nonzero;fill:rgb(25.882354%,25.882354%,25.882354%);fill-opacity:1;" d="M 74.089844 300.363281 C 56.5 300.363281 42.335938 314.523438 42.335938 332.113281 L 42.335938 437.957031 C 42.335938 455.550781 56.5 469.710938 74.089844 469.710938 L 179.933594 469.710938 C 197.523438 469.710938 211.6875 455.550781 211.6875 437.957031 L 211.6875 332.113281 C 211.6875 314.523438 197.523438 300.363281 179.933594 300.363281 Z M 95.257812 332.113281 L 158.765625 332.113281 C 170.492188 332.113281 179.933594 341.554688 179.933594 353.285156 L 179.933594 416.789062 C 179.933594 428.515625 170.492188 437.957031 158.765625 437.957031 L 95.257812 437.957031 C 83.53125 437.957031 74.089844 428.515625 74.089844 416.789062 L 74.089844 353.285156 C 74.089844 341.554688 83.53125 332.113281 95.257812 332.113281 Z M 95.257812 332.113281 "/>
<path style=" stroke:none;fill-rule:nonzero;fill:rgb(25.882354%,25.882354%,25.882354%);fill-opacity:1;" d="M 328.113281 300.363281 C 310.523438 300.363281 296.363281 314.523438 296.363281 332.113281 L 296.363281 437.957031 C 296.363281 455.550781 310.523438 469.710938 328.113281 469.710938 L 433.957031 469.710938 C 451.550781 469.710938 465.710938 455.550781 465.710938 437.957031 L 465.710938 332.113281 C 465.710938 314.523438 451.550781 300.363281 433.957031 300.363281 Z M 349.285156 332.113281 L 412.789062 332.113281 C 424.515625 332.113281 433.957031 341.554688 433.957031 353.285156 L 433.957031 416.789062 C 433.957031 428.515625 424.515625 437.957031 412.789062 437.957031 L 349.285156 437.957031 C 337.554688 437.957031 328.113281 428.515625 328.113281 416.789062 L 328.113281 353.285156 C 328.113281 341.554688 337.554688 332.113281 349.285156 332.113281 Z M 349.285156 332.113281 "/>
</g>
</svg>

<svg xmlns="http://www.w3.org/2000/svg" width="512pt" height="512pt" viewBox="0 0 512 512"><path d="M148.18 215.688v85.914h-42.336v-85.914zm0 0M402.203 152.18h-170.59v-42.336h170.59zm0 0M359.867 301.602V152.18h42.336v149.422zm0 0" fill="#78909c"/><path d="M74.09 46.336c-17.59 0-31.754 14.164-31.754 31.754v105.844c0 17.59 14.164 31.754 31.754 31.754h127.012c17.593 0 31.753-14.165 31.753-31.754V78.09c0-17.59-14.16-31.754-31.753-31.754zM95.258 78.09h84.676a21.122 21.122 0 0 1 21.168 21.168v63.508a21.122 21.122 0 0 1-21.168 21.168H95.258a21.122 21.122 0 0 1-21.168-21.168V99.258A21.122 21.122 0 0 1 95.258 78.09zm0 0M74.09 300.363c-17.59 0-31.754 14.16-31.754 31.75v105.844c0 17.594 14.164 31.754 31.754 31.754h105.844c17.59 0 31.754-14.16 31.754-31.754V332.113c0-17.59-14.165-31.75-31.754-31.75zm21.168 31.75h63.508a21.123 21.123 0 0 1 21.168 21.172v63.504a21.122 21.122 0 0 1-21.168 21.168H95.258a21.122 21.122 0 0 1-21.168-21.168v-63.504a21.123 21.123 0 0 1 21.168-21.172zm0 0M328.113 300.363c-17.59 0-31.75 14.16-31.75 31.75v105.844c0 17.594 14.16 31.754 31.75 31.754h105.844a31.682 31.682 0 0 0 31.754-31.754V332.113c0-17.59-14.16-31.75-31.754-31.75zm21.172 31.75h63.504a21.123 21.123 0 0 1 21.168 21.172v63.504a21.122 21.122 0 0 1-21.168 21.168h-63.504a21.123 21.123 0 0 1-21.172-21.168v-63.504a21.124 21.124 0 0 1 21.172-21.172zm0 0" fill="#424242"/></svg>
